docs/assets/images/icons/github.f0b8504a.svg

<svg xmlns="http://www.w3.org/2000/svg" width="416" height="448"
     viewBox="0 0 416 448" id="__github">
    <path fill="currentColor" d="M160 304q0 10-3.125 20.5t-10.75 19-18.125
        8.5-18.125-8.5-10.75-19-3.125-20.5 3.125-20.5 10.75-19 18.125-8.5
        18.125 8.5 10.75 19 3.125 20.5zM320 304q0 10-3.125 20.5t-10.75
        19-18.125 8.5-18.125-8.5-10.75-19-3.125-20.5 3.125-20.5 10.75-19
        18.125-8.5 18.125 8.5 10.75 19 3.125 20.5zM360
        304q0-30-17.25-51t-46.75-21q-10.25 0-48.75 5.25-17.75 2.75-39.25
        2.75t-39.25-2.75q-38-5.25-48.75-5.25-29.5 0-46.75 21t-17.25 51q0 22 8
        38.375t20.25 25.75 30.5 15 35 7.375 37.25 1.75h42q20.5 0
        37.25-1.75t35-7.375 30.5-15 20.25-25.75 8-38.375zM416 260q0 51.75-15.25
        82.75-9.5 19.25-26.375 33.25t-35.25 21.5-42.5 11.875-42.875 5.5-41.75
        1.125q-19.5 0-35.5-0.75t-36.875-3.125-38.125-7.5-34.25-12.875-30.25-20.25-21.5-28.75q-15.5-30.75-15.5-82.75
        0-59.25 34-99-6.75-20.5-6.75-42.5 0-29 12.75-54.5 27 0 47.5 9.875t47.25
        30.875q36.75-8.75 77.25-8.75 37 0 70 8 26.25-20.5
        46.75-30.25t47.25-9.75q12.75 25.5 12.75 54.5 0 21.75-6.75 42 34 40 34
        99.5z"/>
</svg>

<svg xmlns="http://www.w3.org/2000/svg" width="416" height="448" viewBox="0 0 416 448" id="__github"><path fill="currentColor" d="M160 304q0 10-3.125 20.5t-10.75 19T128 352t-18.125-8.5-10.75-19T96 304t3.125-20.5 10.75-19T128 256t18.125 8.5 10.75 19T160 304zm160 0q0 10-3.125 20.5t-10.75 19T288 352t-18.125-8.5-10.75-19T256 304t3.125-20.5 10.75-19T288 256t18.125 8.5 10.75 19T320 304zm40 0q0-30-17.25-51T296 232q-10.25 0-48.75 5.25Q229.5 240 208 240t-39.25-2.75Q130.75 232 120 232q-29.5 0-46.75 21T56 304q0 22 8 38.375t20.25 25.75 30.5 15 35 7.375 37.25 1.75h42q20.5 0 37.25-1.75t35-7.375 30.5-15 20.25-25.75T360 304zm56-44q0 51.75-15.25 82.75-9.5 19.25-26.375 33.25t-35.25 21.5-42.5 11.875-42.875 5.5T212 416q-19.5 0-35.5-.75t-36.875-3.125-38.125-7.5-34.25-12.875T37 371.5t-21.5-28.75Q0 312 0 260q0-59.25 34-99-6.75-20.5-6.75-42.5 0-29 12.75-54.5 27 0 47.5 9.875t47.25 30.875Q171.5 96 212 96q37 0 70 8 26.25-20.5 46.75-30.25T376 64q12.75 25.5 12.75 54.5 0 21.75-6.75 42 34 40 34 99.5z"/></svg>
